svgs/regular/truck-container.svg

<svg xmlns="http://www.w3.org/2000/svg" viewBox="0 0 640 512"><!--! Font Awesome Pro 6.5.1 by @fontawesome - https://fontawesome.com License - https://fontawesome.com/license (Commercial License) Copyright 2023 Fonticons, Inc. --><path d="M0 104C0 64.2 32.2 32 72 32H328c39.8 0 72 32.2 72 72V288c0 13.3-10.7 24-24 24s-24-10.7-24-24V104c0-13.3-10.7-24-24-24H72c-13.3 0-24 10.7-24 24V288c0 13.3-10.7 24-24 24s-24-10.7-24-24V104zM608 400c0 44.2-35.8 80-80 80s-80-35.8-80-80H432 288c0 44.2-35.8 80-80 80c-26.2 0-49.4-12.6-64-32c-14.6 19.4-37.8 32-64 32c-44.2 0-80-35.8-80-80s35.8-80 80-80c26.2 0 49.4 12.6 64 32c14.6-19.4 37.8-32 64-32s49.4 12.6 64 32H432V256 168c0-13.3 10.7-24 24-24h72.8c16.8 0 32.7 7.5 43.3 20.5L631 236.4c5.8 7.1 9 16.1 9 25.3V272v16 80c0 17.7-14.3 32-32 32zM585 256l-50-61.1c-1.5-1.9-3.8-2.9-6.2-2.9H480v64H585zM136 136V264c0 13.3-10.7 24-24 24s-24-10.7-24-24V136c0-13.3 10.7-24 24-24s24 10.7 24 24zm88 0V264c0 13.3-10.7 24-24 24s-24-10.7-24-24V136c0-13.3 10.7-24 24-24s24 10.7 24 24zm88 0V264c0 13.3-10.7 24-24 24s-24-10.7-24-24V136c0-13.3 10.7-24 24-24s24 10.7 24 24zM528 432a32 32 0 1 0 0-64 32 32 0 1 0 0 64zM240 400a32 32 0 1 0 -64 0 32 32 0 1 0 64 0zM80 432a32 32 0 1 0 0-64 32 32 0 1 0 0 64z"/></svg>

<svg xmlns="http://www.w3.org/2000/svg" viewBox="0 0 640 512"><!--! Font Awesome Pro 6.1.1 by @fontawesome - https://fontawesome.com License - https://fontawesome.com/license (Commercial License) Copyright 2022 Fonticons, Inc. --><path d="M0 104C0 64.24 32.24 32 72 32H328C367.8 32 400 64.24 400 104V288C400 301.3 389.3 312 376 312C362.7 312 352 301.3 352 288V104C352 90.75 341.3 80 328 80H72C58.75 80 48 90.75 48 104V288C48 301.3 37.25 312 24 312C10.75 312 0 301.3 0 288V104zM608 400C608 444.2 572.2 480 528 480C483.8 480 448 444.2 448 400H288C288 444.2 252.2 480 208 480C181.8 480 158.6 467.4 144 448C129.4 467.4 106.2 480 80 480C35.82 480 0 444.2 0 400C0 355.8 35.82 320 80 320C106.2 320 129.4 332.6 144 351.1C158.6 332.6 181.8 320 208 320C234.2 320 257.4 332.6 272 352H432V168C432 154.7 442.7 144 456 144H528.8C545.6 144 561.5 151.5 572.2 164.5L630.1 236.4C636.8 243.5 640 252.5 640 261.7V368C640 385.7 625.7 400 608 400zM535 194.9C533.5 193.1 531.2 192 528.8 192H480V256H584.1L535 194.9zM528 432C545.7 432 560 417.7 560 400C560 382.3 545.7 368 528 368C510.3 368 496 382.3 496 400C496 417.7 510.3 432 528 432zM208 368C190.3 368 176 382.3 176 400C176 417.7 190.3 432 208 432C225.7 432 240 417.7 240 400C240 382.3 225.7 368 208 368zM80 432C97.67 432 112 417.7 112 400C112 382.3 97.67 368 80 368C62.33 368 48 382.3 48 400C48 417.7 62.33 432 80 432zM136 264C136 277.3 125.3 288 112 288C98.75 288 88 277.3 88 264V136C88 122.7 98.75 112 112 112C125.3 112 136 122.7 136 136V264zM224 264C224 277.3 213.3 288 200 288C186.7 288 176 277.3 176 264V136C176 122.7 186.7 112 200 112C213.3 112 224 122.7 224 136V264zM312 264C312 277.3 301.3 288 288 288C274.7 288 264 277.3 264 264V136C264 122.7 274.7 112 288 112C301.3 112 312 122.7 312 136V264z"/></svg>
